X:1
T:Prélude to Act 1 of Carmen
T:Georges Bizet
T:PRÉLUDE.
T:Nº 1.
T:Public Domain
T:Public Domain
T:Public Domain
T:Public Domain
T:Public Domain
T:Public Domain
C:Georges Bizet
Z:Public Domain
%%score { ( 1 3 ) | ( 2 4 ) }
L:1/8
Q:1/4=116
M:2/4
K:A
V:1 treble nm="PIANO."
V:3 treble 
V:2 bass 
V:4 bass 
V:1
"^Allegro  giocoso.."!ff! .[Acea].a/.a/ .a/.e/.d/.e/ | .a.a/.a/ .a/.b/.c'/.b/ | %2
 .a.a/.a/ .b/.a/.g/.a/ | (!trill(!Tb4{^ab)} | .[=df=a=d'].d'/.d'/ .d'/.a/.=g/.a/ | %5
 .d'.d'/.d'/ .d'/.e'/.f'/.e'/ | .d'.d'/.c'/ .b.b/.a/ | (!trill(!Tg4{fg)} | %8
 .[Acea].a/.a/ .a/.e/.d/.e/ | .a.a/.a/ .a/.b/.c'/.b/ | .a.a/.a/ .b/.a/.g/.a/ | (!trill(!Tb4{^ab)} | %12
 .[e=g=c'e'].[c'e']/.[c'e']/ ([c'e']/.[g=d']/).[ec']/.[gd']/ | %13
 .[=c'e'].[c'e']/.[c'e']/ ([c'e']/.[=gd']/).[ec']/.[gd']/ | .[ee'] .e/.f/ .^g.e/.^c'/ | %15
 ([degb]2 .[cea]) z :|!p! ([Ac].[cf]).[Ac].[GB] | ([FA][^EG]/[^DF]/ .[EG]).C | %18
 .[^DF].[^EG].[FA].[Cc] | ([B^e][A^d]/[Be]/ .[Gc]).C | ([Ac].[cf]).[Ac].[GB] | %21
 ([FA][^EG]/[^DF]/ .[EG]).C | .[^DF].[^EG].[FA].[Cc] | ([G^e][F^d]/[Ge]/ [^Ec]) z | %24
!f! [=D=d]/[Dd]/.[Dd] [=Ed=e]/[Ede]/.[Ede] | [Fdf]/[Fdf]/.[Fdf] [Dd]/[Dd]/.[Dd] | %26
 z/ .[cc']/z/.[Gg]/ z/ .[cc']/z/.[dd']/ | z/ .[cc']/z/.[Gg]/ .[cc'] z | %28
 [Dd]/[Dd]/.[Dd] [Ede]/[Ede]/.[Ede] | [Fdf]/[Fdf]/.[Fdf] [Dd]/[Dd]/.[Dd] | %30
!pp! !///-!G2"_cresc." g2 | !///-!G2 g2 | !///-!G2 g2 | !///-!G g G!ff!.[=B=deg] | %34
 .[Acea].a/.a/ .a/.e/.d/.e/ | .a.a/.a/ .a/.b/.c'/.b/ | .a.a/.a/ .b/.a/.g/.a/ | (!trill(!Tb4{^ab)} | %38
 .[=df=a=d'].d'/.d'/ .d'/.a/.=g/.a/ | .d'.d'/.d'/ .d'/.e'/.f'/.e'/ | .d'.d'/.c'/ .b.b/.a/ | %41
 (!trill(!Tg4{fg)} | .[Acea].a/.a/ .a/.e/.d/.e/ | .a.a/.a/ .a/.b/.c'/.b/ | .a.a/.a/ .b/.a/.g/.a/ | %45
 (!trill(!Tb4{^ab)} | .[e=g=c'e'].[c'e']/.[c'e']/ ([c'e']/.[g=d']/).[ec']/.[gd']/ | %47
 .[=c'e'].[c'e']/.[c'e']/ ([c'e']/.[=gd']/).[ec']/.[gd']/ | .[ee'] .e/.f/ .^g.e/.^c'/ | %49
 ([degb]2 .[cea]) z |!pp! .[=FA] z .[FA] z | .[=FA] z .[FA] z | .[=FA] z .[FA] z | %53
 .[=FA] z .[FA] z |!p!"^mais très marqué" (=c2 d>c | A2 A2 |{/_B} A>=G A>B | A2-) A z | %58
 (_B2 =G>=c | A2-) A z | (=F2 D>=G | =C2-) C z | (=G4 | =Gd=c_B |{/_B} A=GA_B | A2-) A z | %66
 (E2!<(! A2 | A2 ^G>!<)!B | e4-) | e4- | (e(3d/e/d/ cd | =GA _B2-) | (B(3A/_B/A/"_dim." =Fd | %73
 =c2-) c z | z!p! (3(=F/=G/F/ =C_B | A2{=GA} =G2 | .[=C=F])!ff! C/D/ E/F/=G/A/ | %77
 _B/=c/d/e/ =f/=g/[fa]/[g_b]/ | .[=c=fa=c'] z .[dfad']z/([cc']/ | .[A=c=fa]) z .[Acfa] z | %80
{/_b} .[A=c=fa]z/([=G=g]/ .[Acfa])z/([_Bb]/ | [Aa]2-) [Aa] z | [_Bd=f_b] z .[=G=ce=g]z/([c=c']/ | %83
 [Aa]2-) [Aa] z | .[=FA=c=f] z .[DF=Bd]z/[=G=g]/ | =c2- c z |!p!"^express." ([=G=g]4 | %87
 [=G=g][dd'][=c=c'][_B_b] |{/_b} [Aa][=G=g][Aa][_B_b] | [Aa]2-) [Aa] z | ([Ee]2 [Aa]2 | %91
 [Aa]2 [^G^g]>"_cresc."[Bb] | !///-!e2 e'2 | !///-!^e2 ^e'2 | %94
 .[gg']/)z/(3([ff']/g'/f'/ .[^e^e']).[ff'] | .[Bb].[cc'] !^![dd']2- | %96
 [dd']/z/(3(c'/d'/c'/ .=a).f' | .e' .[EAc]/.[EAc]/ .[EA].[FAdf] | .[EAce]!ff! (3(a/b/a/ .e).d' | %99
 .c' z .[degb] z | .[Acea].a/.a/ .a/.e/.d/.e/ | .a.a/.a/ .a/.b/.c'/.b/ | .a.a/.a/ .b/.a/.g/.a/ | %103
 (!trill(!Tb4{^ab)} | .[=df=a=d'].d'/.d'/ .d'/.a/.=g/.a/ | .d'.d'/.d'/ .d'/.e'/.f'/.e'/ | %106
 .d'.d'/.c'/ .b.b/.a/ | (!trill(!Tg4{fg)} | .[Acea].a/.a/ .a/.e/.d/.e/ | .a.a/.a/ .a/.b/.c'/.b/ | %110
 .a.a/.a/ .b/.a/.g/.a/ | (!trill(!Tb4{^ab)} | %112
 .[e=g=c'e'].[c'e']/.[c'e']/ ([c'e']/.[g=d']/).[ec']/.[gd']/ | %113
 .[=c'e'].[c'e']/.[c'e']/ ([c'e']/.[=gd']/).[ec']/.[gd']/ | %114
 ([=c'e']/!ff!.[=gd']/).[ec']/.[gd']/ ([c'e']/.[gd']/).[ec']/.[gd']/ | %115
 ([=c'e']/.[=gd']/).[ec']/.[gd']/ ([c'e']/.[gd']/).[ec']/.[gd']/ | !///-!e2 e'2 | %117
 !///-!e e' e.[^gbd'e'] | .[a^c'e'a'] z [A,A] z | !fermata!z4 || %120
[K:C][M:3/4]!ff![Q:1/4=58]"^Andante  moderato" !///-![DF]3 A3 | !///-![DF]3 A3 | !///-!F3 A3 | %123
 !///-![DF]3 A3 | !///-![DF]3 =B3 | !///-![D=G]3 _B3 | !///-![DA]3 d3 | !///-![=FA]3 d3 | %128
 !///-![E_B]3 c3 | !///-![FA]3 c3 | !///-!_A3 =B3 | !///-![F_A]3 c3 | !///-![F_A]3 =d3 | %133
 !///-![E_d]3 e3 | !///-![Fc]3 f3 |!<(! !///-![_Ac]3!<)! f3 | !///-![G_d]3 _e3 | %137
 !///-![_Ac]3"_dim." _e3 |!p! !///-![F_c]3 =d3 | !///-![_E_c] _e !///-![E_B]2 e2 | %140
!p! !///-![G_d]3 =e3 | !///-![F_d] f !///-![Fc]2 f2 |"^cresc." !///-![^FA]3 _e3 | !///-![Ac]3 ^f3 | %144
 !///-![c_e]3 a3 | !///-![c_e]3 a3 |!fff! .[_B^c=e_b] z z2 z2 | !fermata!z6 |] %148
V:2
 .[A,,C,E,A,].[CE] .E,.[B,DE] | .A,.[CE] .E,.[B,DE] | .A,.[CE] .G,.[A,CE] | %3
 .F,.[A,B,^D] .E,.[G,B,E] | .=D,.[F,A,D] .A,,.[E,=G,A,D] | .D,.[F,A,D] .A,,.[E,=G,A,D] | %6
 .D,.[F,A,D] .^G,,.[F,B,D] | .C,.[^E,G,C] .=E,.[G,B,D] | .[A,,C,E,A,].[CE] .E,.[B,DE] | %9
 .A,.[CE] .E,.[B,DE] | .A,.[CE] .G,.[A,CE] | .F,.[A,B,^D] .E,.[G,B,E] | .=C,.=G, .=G,,.G, | %13
 .=C,.=G, .=G,,.G, | .[E,,E,] .[E,^G,B,D]/.[E,G,B,D]/ .[E,G,B,D].[E,G,B,D]/.[E,G,B,D]/ | %15
!ped! .[E,G,B,D].E,/.E,/!ped-up! .[A,,C,E,A,] z :| (F,,.C,).F,.G, | (A,B,/C/ .B,).C, | %18
 !arpeggio!.[F,,A,].G,.F,.A, | (G,F,/G,/ .^E,).C, | (F,,.C,).F,.G, | (A,B,/C/ .B,).C, | %22
 !arpeggio!.[F,,A,].G,.F,.A, | (([G,^B,]2 [C,C])) z | %24
 [=D,,=D,]/[D,,D,]/.[D,,D,] [=E,,D,=E,]/[E,,D,E,]/.[E,,D,E,] | %25
 [F,,D,F,]/[F,,D,F,]/.[F,,D,F,] [D,,D,]/[D,,D,]/.[D,,D,] | .[C,,C,].[G,,,G,,] .[C,,C,].[D,,D,] | %27
 .[C,,C,].[G,,,G,,] .[C,,C,] z | [D,,D,]/[D,,D,]/.[D,,D,] [E,,D,E,]/[E,,D,E,]/.[E,,D,E,] | %29
 [F,,D,F,]/[F,,D,F,]/.[F,,D,F,] [D,,D,]/[D,,D,]/.[D,,D,] | [G,,G,][G,,,G,,][A,,,A,,][A,,A,] | %31
 [^A,,^A,][^A,,,A,,][B,,,B,,][B,,B,] | [^B,,^B,][^B,,,B,,][C,,C,][C,C] | %33
 [D,D][D,,D,][^D,,^D,][E,,E,] | .[A,,,A,,].[CE] .E,.[B,DE] | .A,.[CE] .E,.[B,DE] | %36
 .A,.[CE] .G,.[A,CE] | .F,.[A,B,^D] .E,.[G,B,E] | .=D,.[F,A,D] .A,,.[E,=G,A,D] | %39
 .D,.[F,A,D] .A,,.[E,=G,A,D] | .D,.[F,A,D] .^G,,.[F,B,D] | .C,.[^E,G,C] .=E,.[G,B,D] | %42
 .[A,,C,E,A,].[CE] .E,.[B,DE] | .A,.[CE] .E,.[B,DE] | .A,.[CE] .G,.[A,CE] | %45
 .F,.[A,B,^D] .E,.[G,B,E] | .=C,.=G, .=G,,.G, | .=C,.=G, .=G,,.G, | %48
 .[E,,E,] .[E,^G,B,D]/.[E,G,B,D]/ .[E,G,B,D].[E,G,B,D]/.[E,G,B,D]/ | %49
!ped! .[E,G,B,D].E,/.E,/!ped-up! .[A,,C,E,A,] z | .[=F,A,=C] z .[=C,A,C] z | %51
 .[=F,A,=C] z .[=C,A,C] z | .[=F,A,=C] z .[=C,A,C] z | .[=F,A,=C] z .[=C,A,C] z | %54
 .[=F,A,=C] z .[=C,A,C] z | .[=F,A,=C] z .[=C,A,C] z | .[=F,A,=C] z .[=C,A,C] z | %57
 .[=F,A,=C] z .[=C,A,C] z | .[=G,_B,D] z .[=C,B,=C] z | .[=F,A,=C] z .[E,A,C] z | %60
 .[D,A,] z .[=G,,=F,] z | .[=C,E,] z .[=C,,C,] z | .[_B,D] z .D z | .[_B,D] z .[=G,B,D] z | %64
 .[=F,A,D] z .[A,D] z | .[=F,A,D] z .[D,F,A,D] z | .[E,A,=C] z .C z | .[=B,D] z .[E,B,D] z | %68
!ped! .[A,^C] z .[E,A,C] z | .[C,E,A,C] z .[A,,C,E,A,] z!ped-up! | .[_B,,D,=F,=G,] z .[D,F,G,] z | %71
 .[_B,,D,=F,=G,] z .[=G,,D,F,G,] z | .[=C,=C] z z2 | z"_legg" (3(A,/_B,/A,/ .[=C,=F,]).[B,D] | %74
 .[A,=C] z z2 | z2 .[=C,_B,] z | .[=F,A,][K:treble] A,/_B,/ =C/D/E/=F/ | =G/A/_B/=c/ d/e/ z | %78
[K:bass] .[=F,A,=C] z .[=C,F,A,C] z | .[=F,A,=C] z .[=C,F,A,C] z | .[=F,A,=C] z .[=C,F,A,C] z | %81
 .[=F,A,=C] z .[=C,F,A,C] z | .[=G,_B,D] z .[=C,G,B,=C] z | .[=F,A,=C] z .[E,F,A,C] z | %84
 .[D,=F,A,=C] z .[=G,=B,] z | .[=C,E,=G,=C] z .C z | .[_B,D] z .D z | .[_B,D] z .[=G,B,D] z | %88
 .[=F,A,D] z .[A,D] z | .[=F,A,D] z .[D,F,A,D] z | .[E,A,=C] z .[CE] z | .[=B,DE] z .[E,B,DE] z | %92
 .[A,^CE] z .[E,A,CE] z | .[C,^E,A,] z .[A,,C,E,A,] z | .[D,F,A,] z .[F,^A,] z | %95
 .[D,F,B,] z .[B,,D,F,B,] z | [=E,,=E,][K:treble] (3(c/d/c/ .=A).f | %97
!ped! .e[K:bass] .[E,A,C]/.[E,A,C]/ .[E,A,C].[E,A,D] | .[E,A,C]!ped-up! (3(A,/B,/A,/ .E,).D | %99
 .C z .[E,,G,,B,,E,] z | .[A,,C,E,A,].[CE] .E,.[B,DE] | .A,.[CE] .E,.[B,DE] | .A,.[CE] .G,.[A,CE] | %103
 .F,.[A,B,^D] .E,.[G,B,E] | .=D,.[F,A,D] .A,,.[E,=G,A,D] | .D,.[F,A,D] .A,,.[E,=G,A,D] | %106
 .D,.[F,A,D] .^G,,.[F,B,D] | .C,.[^E,G,C] .=E,.[G,B,D] | .[A,,C,E,A,].[CE] .E,.[B,DE] | %109
 .A,.[CE] .E,.[B,DE] | .A,.[CE] .G,.[A,CE] | .F,.[A,B,^D] .E,.[G,B,E] | .=C,.=G, .=G,,.G, | %113
 .=C,.=G, .=G,,.G, | .=C,.[=G,,=G,] .[C,G,].[G,,G,] | .[=C,=G,].[=G,,G,] .[C,G,].[=G,,G,] | %116
!ped! [E,,E,][E,E]/[E,E]/ (3[E,E][E,E][E,E] | (3[E,E][E,E][E,E] [E,E].[E,^G,B,]!ped-up! | %118
 .[A,,^C,E,A,] z [A,,,A,,] z | !fermata!z4 ||[K:C][M:3/4] z6 |"^espressivo" z6 | D2- (D^C_B, ^C | %123
!ped! A,2) .[D,,D,] z!ped-up! .[D,,D,] z | A,2- (A,^G,=F,^G, | %125
!ped! E,2) .[D,,D,] z!ped-up! .[D,,D,] z | G,2- (G,^F,_E,^F, |!<(! D,2 =E,2!<)! =F,2 | A,4 G,2 | %129
!>(! G,2!>)! F,2- F,) z | F2- (F=E_D=E |!ped! C2) .[F,,F,] z!ped-up! .[F,,F,] z | C2- (C=B,_A,=B, | %133
!ped! G,2) .[F,,F,] z!ped-up! .[F,,F,] z | _B,2- (B,=A,_G,=A, | F,2 =G,2 _A,2 | C4 _B,2 | %137
!>(! _B,2!>)! _A,2- A,) z | _C2- (C!<(!_A,=G,A,!<)! |!>(! _C2!>)!!ped! _B,2-) B, z!ped-up! | %140
!p!"^moins" _D2- (D!<(!_B,A,B,!<)! |!>(! _D2!>)!!ped! C2-) C z!ped-up! | %142
!ped! _E2- (EC=B,C!ped-up! |!ped! ^F2-) (F_E!ped-up!DE |!ped! A4) !^!A2- | %145
 A !^!A2 !^!A2 A!ped-up! | .[G,,_B,,^C,=E,G,] z z2 z2 | %147
"^tres long""_Enchaînez\nle Nº 1." !fermata!z6 |] %148
V:3
 x4 | x4 | x4 | x4 | x4 | x4 | x4 | x4 | x4 | x4 | x4 | x4 | x4 | x4 | x4 | x4 :| x4 | x4 | x4 | %19
 x4 | x4 | x4 | x4 | x4 | x4 | x4 | x4 | x4 | x4 | x4 | x4 | x4 | x4 | x4 | x4 | x4 | x4 | x4 | %38
 x4 | x4 | x4 | x4 | x4 | x4 | x4 | x4 | x4 | x4 | x4 | x4 | x4 | x4 | x4 | x4 | .[=FA] z .[FA] z | %55
 .=F z .F z | .=F z .F z | .=F z .F x | .=F z .E z | .=F z .F x | .=C z .[=G,=B,] z | .=G, z z2 | %62
 x4 | x4 | x4 | x4 | x2 .E z | .E z .E z | .E"_cresc." z .E z | .[EA] z .[EA] z | %70
 .[=F=G] z .[FG] z | .[D=F] z .[DF] z | x4 | x4 | x4 | x2 .[=CE] z | x4 | x4 | x4 | x4 | x4 | %81
 .[=c=f] z .[cf] x | x4 | .[=c=f] z .[cf] x | x4 | .[E=G] z .[EG] z | x4 | x4 | x4 | x4 | x4 | x4 | %92
 x4 | x4 | x4 | x4 | x4 | x4 | x4 | x4 | x4 | x4 | x4 | x4 | x4 | x4 | x4 | x4 | x4 | x4 | x4 | %111
 x4 | x4 | x4 | x4 | x4 | x4 | x4 | x4 | x4 ||[K:C][M:3/4] x6 | x6 | x6 | x6 | x6 | x6 | x6 | x6 | %128
 x6 | x6 | x6 | x6 | x6 | x6 | x6 | x6 | x6 | x6 | x6 | x6 | x6 | x6 | x6 | x6 | x6 | x6 | x6 | %147
 x6 |] %148
V:4
 x4 | x4 | x4 | x4 | x4 | x4 | x4 | x4 | x4 | x4 | x4 | x4 | x4 | x4 | x4 | x4 :| x4 | x4 | x4 | %19
 x4 | x4 | x4 | x4 | x4 | x4 | x4 | x4 | x4 | x4 | x4 | x4 | x4 | x4 | x4 | x4 | x4 | x4 | x4 | %38
 x4 | x4 | x4 | x4 | x4 | x4 | x4 | x4 | x4 | x4 | x4 | x4 | x4 | x4 | x4 | x4 | x4 | x4 | x4 | %57
 x4 | x4 | x4 | x4 | x4 | x4 | x4 | x4 | x4 | x4 | x4 | x4 | x4 | x4 | x4 | x4 | x4 | x4 | x4 | %76
 x[K:treble] x3 | x4 |[K:bass] x4 | x4 | x4 | x4 | x4 | x4 | x4 | x4 | x4 | x4 | x4 | x4 | x4 | %91
 x4 | x4 | x4 | x4 | x4 | x[K:treble] x3 | x[K:bass] x3 | x4 | x4 | x4 | x4 | x4 | x4 | x4 | x4 | %106
 x4 | x4 | x4 | x4 | x4 | x4 | x4 | x4 | x4 | x4 | x4 | x4 | x4 | x4 ||[K:C][M:3/4] x6 | x6 | x6 | %123
 x6 | x6 | x6 | x6 | (=B,,6 | C,6 | F,,2-) F,, z z2 | x6 | x6 | x6 | x6 | x6 | (=D,6 | _E,6 | %137
 _A,,2-) A,, z z2 | _A,, z z2 z2 | z2 G,, z G,, z | _B,, z z2 z2 | z2 =A,, z A,, z | =C, z z2 z2 | %143
 _E, z z2 z2 | ^F, z z2 z2 | x6 | x6 | x6 |] %148

